X:32
T:Kuinkas Se Joki (How could sriver be so straight when you are so crooked)
M:2/4
L:1/16
Q:1/4=80
S:arr. Eira Mattsson (Washington DC Finlandia Foundation) ~1976
R:jenkka
N:How could the river be so straight when you are so crooked?
K:Dm
|: "Dm" A2BB AAGG | F2E2 F2DF | A2FA "Gm" c2d2 | "A7" A4 A4 :| !
|: "Dm" A2Bd "Gm" c2B2 | "Dm" AAAB "A7" A2GG |
"Dm" FFAA "A7" F2E2 | "Dm" D4 D4 :|
